design-system/icons/build--labs-icons.svg

<svg width="22" height="20" viewBox="0 0 22 20" fill="none" xmlns="http://www.w3.org/2000/svg">
<mask id="mask0_317_73" style="mask-type:alpha" maskUnits="userSpaceOnUse" x="0" y="0" width="22" height="22">
<rect x="0.25" width="21.0833" height="21.0833" fill="#D9D9D9"/>
</mask>
<g mask="url(#mask0_317_73)">
<path d="M8.1564 13.3967C6.58979 13.3967 5.2611 12.844 4.17033 11.7386C3.07956 10.6332 2.53418 9.29717 2.53418 7.73056C2.53418 7.46701 2.5598 7.14491 2.61105 6.76424C2.66229 6.38357 2.74648 6.0761 2.86361 5.84184C2.95145 5.66615 3.07224 5.52339 3.22598 5.41359C3.37971 5.30378 3.54442 5.23423 3.72012 5.20495C3.89581 5.17567 4.07151 5.18665 4.2472 5.23789C4.42289 5.28914 4.58395 5.38796 4.73036 5.53438L6.92654 7.73056L8.1564 6.50069L5.93826 4.30451C5.79185 4.1581 5.69302 3.99705 5.64178 3.82135C5.59053 3.64566 5.57955 3.46997 5.60883 3.29427C5.63811 3.11858 5.70766 2.95386 5.81747 2.80013C5.92728 2.6464 6.07003 2.52561 6.24572 2.43776C6.49463 2.32063 6.80941 2.23644 7.19008 2.1852C7.57075 2.13396 7.89286 2.10833 8.1564 2.10833C9.72301 2.10833 11.059 2.65372 12.1644 3.74449C13.2698 4.83526 13.8225 6.16395 13.8225 7.73056C13.8225 8.02338 13.8006 8.3162 13.7567 8.60903C13.7127 8.90185 13.6469 9.19468 13.559 9.4875L17.6659 13.5504C18.1783 14.0629 18.4345 14.6705 18.4345 15.3733C18.4345 16.076 18.1856 16.6837 17.6878 17.1961C17.1754 17.7085 16.5531 17.9684 15.8211 17.9757C15.089 17.9831 14.4668 17.7305 13.9543 17.2181L9.91335 13.1332C9.64981 13.221 9.36796 13.2869 9.06782 13.3308C8.76767 13.3747 8.46387 13.3967 8.1564 13.3967Z" fill="#1C1B1F"/>
</g>
</svg>

<svg xmlns="http://www.w3.org/2000/svg" width="22" height="20" fill="none" viewBox="0 0 22 20"><mask id="a" width="22" height="22" x="0" y="0" maskUnits="userSpaceOnUse" style="mask-type:alpha"><path fill="#d9d9d9" d="M.25 0h21.083v21.083H.25z"/></mask><g mask="url(#a)"><path fill="#1c1b1f" d="M8.156 13.397q-2.35 0-3.986-1.658Q2.535 10.08 2.534 7.73q0-.396.077-.967.076-.57.253-.922.13-.264.362-.428a1.17 1.17 0 0 1 1.021-.176q.264.077.483.296l2.197 2.197 1.23-1.23-2.219-2.196a1.13 1.13 0 0 1-.33-1.01 1.17 1.17 0 0 1 .638-.857q.373-.176.944-.253.57-.077.966-.077 2.35 0 4.008 1.636 1.659 1.636 1.659 3.987 0 .438-.066.878t-.198.879l4.107 4.062q.768.769.768 1.823t-.746 1.823a2.58 2.58 0 0 1-1.867.78 2.5 2.5 0 0 1-1.867-.758l-4.04-4.085a5 5 0 0 1-.846.198 6 6 0 0 1-.912.066"/></g></svg>
